file/magirus.svg

<svg clip-rule="evenodd" fill-rule="evenodd" stroke-linejoin="round" stroke-miterlimit="1.41421" viewBox="0 0 560 400" xmlns="http://www.w3.org/2000/svg"><g fill-rule="nonzero" transform="matrix(.493128 0 0 .493128 27.5185 156.112)"><path d="m145.598 122.114 16.063-31.567 27.865 54.649h35.621l-53.602-105.194-66.55 130.604h-99.963l84.329-165.463h28.883l11.533 22.488-16.097 31.572-9.923-19.201-53.614 105.197 35.651-.004 71.358-140.064h28.811l84.32 165.474h-99.991z" fill="#f02823"/><path d="m939.857 148.109c10.966 2.966 20.139 4.094 31.95 4.094 9.068 0 17.683-1.446 17.683-9.68 0-19.15-50.697-7.08-50.697-44.488 0-24.745 25.2-31.528 46.692-31.528 10.292 0 20.415 1.474 27.655 3.84l-.06 19.72c-8.02-2.087-17.463-2.889-25.606-2.889-7.205 0-19.191.249-19.191 9.237 0 16.646 50.687 5.452 50.687 42.577 0 26.638-23.353 33.877-47.163 33.877-9.982 0-22.416-1.473-31.949-4.418v-20.342m-282.957 19.995c-17.488 4.466-27.703 4.765-37.188 4.765-31.171 0-61.047-14.525-61.047-54.021 0-26.92 19.622-63.062 95.264-49.332l-.124 20.581c-10.464-1.501-17.601-1.664-24.119-1.65-17.474.03-42.316 5.122-42.316 29.526 0 20.471 10.658 33.806 35.895 33.199 3.685-.077 7.275-.144 9.781-1.348v-20.043h-16.147v-19.75l40.001-.011zm98.245-56.945h12.838c8.905 0 19.41.47 19.41-11.731 0-10.188-8.858-11.157-19.41-11.157h-12.838zm-27.145-43.13h53.463c18.685 0 33.887 15.438 33.887 33.623 0 14.085-6.636 23.496-20.185 26.681v.292l25.576 41.981h-28.793s-17.761-28.999-24.235-38.605h-12.568v38.605h-27.145zm194.725 63.943c0 28.206-18.209 40.897-44.921 40.897-26.718 0-46.286-12.691-46.286-40.897v-63.943h27.316v59.362c0 13.586 5.019 22.622 18.97 22.622 13.939 0 17.606-9.036 17.606-22.622v-59.362h27.315zm-243.478 38.634h27.304v-102.577h-27.304zm-177.306-81.332h-.288l-13.215 40.093h25.704zm-16.738-21.125h33.477l39.489 102.457h-29.943l-7.637-21.867h-38.468l-8.078 21.867h-27.713zm-76.561-.121-28.824 36.796-28.821-36.796h-26.115v102.578h26.011v-61.915l28.947 34.417 28.9-34.417v61.915h26.05v-102.578z" fill="#5e6a71"/></g></svg>

<?xml version="1.0" encoding="UTF-8" standalone="no"?>
<!DOCTYPE svg PUBLIC "-//W3C//DTD SVG 1.1//EN" "http://www.w3.org/Graphics/SVG/1.1/DTD/svg11.dtd">
<svg width="100%" height="100%" viewBox="0 0 560 400" version="1.1" xmlns="http://www.w3.org/2000/svg" xmlns:xlink="http://www.w3.org/1999/xlink" xml:space="preserve" xmlns:serif="http://www.serif.com/" style="fill-rule:evenodd;clip-rule:evenodd;stroke-linejoin:round;stroke-miterlimit:1.41421;">
    <g transform="matrix(0.493128,0,0,0.493128,27.5185,156.112)">
        <path id="path3078" d="M145.598,122.114L161.661,90.547L189.526,145.196L225.147,145.196L171.545,40.002L104.995,170.606L5.032,170.606L89.361,5.143L118.244,5.143L129.777,27.631L113.68,59.203L103.757,40.002L50.143,145.199L85.794,145.195L157.152,5.131L185.963,5.131L270.283,170.605L170.292,170.605L145.598,122.114" style="fill:rgb(240,40,35);fill-rule:nonzero;"/>
        <path id="path3092" d="M939.857,148.109C950.823,151.075 959.996,152.203 971.807,152.203C980.875,152.203 989.49,150.757 989.49,142.523C989.49,123.373 938.793,135.443 938.793,98.035C938.793,73.29 963.993,66.507 985.485,66.507C995.777,66.507 1005.9,67.981 1013.14,70.347L1013.08,90.067C1005.06,87.98 995.617,87.178 987.474,87.178C980.269,87.178 968.283,87.427 968.283,96.415C968.283,113.061 1018.97,101.867 1018.97,138.992C1018.97,165.63 995.617,172.869 971.807,172.869C961.825,172.869 949.391,171.396 939.858,168.451L939.858,148.109M656.901,168.104C639.413,172.57 629.198,172.869 619.713,172.869C588.542,172.869 558.666,158.344 558.666,118.848C558.666,91.928 578.288,55.786 653.93,69.516L653.806,90.097C643.342,88.596 636.205,88.433 629.687,88.447C612.213,88.477 587.371,93.569 587.371,117.973C587.371,138.444 598.029,151.779 623.266,151.172C626.951,151.095 630.541,151.028 633.047,149.824L633.047,129.781L616.9,129.781L616.9,110.031L656.901,110.02L656.901,168.104M755.146,111.159L767.984,111.159C776.889,111.159 787.394,111.629 787.394,99.428C787.394,89.24 778.536,88.271 767.984,88.271L755.146,88.271L755.146,111.159ZM728.001,68.029L781.464,68.029C800.149,68.029 815.351,83.467 815.351,101.652C815.351,115.737 808.715,125.148 795.166,128.333L795.166,128.625L820.742,170.606L791.949,170.606C791.949,170.606 774.188,141.607 767.714,132.001L755.146,132.001L755.146,170.606L728.001,170.606L728.001,68.029M922.726,131.972C922.726,160.178 904.517,172.869 877.805,172.869C851.087,172.869 831.519,160.178 831.519,131.972L831.519,68.029L858.835,68.029L858.835,127.391C858.835,140.977 863.854,150.013 877.805,150.013C891.744,150.013 895.411,140.977 895.411,127.391L895.411,68.029L922.726,68.029L922.726,131.972M679.248,170.606L706.552,170.606L706.552,68.029L679.248,68.029L679.248,170.606ZM501.942,89.274L501.654,89.274L488.439,129.367L514.143,129.367L501.942,89.274ZM485.204,68.149L518.681,68.149L558.17,170.606L528.227,170.606L520.59,148.739L482.122,148.739L474.044,170.606L446.331,170.606L485.204,68.149M408.643,68.028L379.819,104.824L350.998,68.028L324.883,68.028L324.883,170.606L350.894,170.606L350.894,108.691L379.841,143.108L408.741,108.691L408.741,170.606L434.791,170.606L434.791,68.028L408.643,68.028" style="fill:rgb(94,106,113);fill-rule:nonzero;"/>
    </g>
</svg>
